svg/UnitedNations-Flags/flag-zm.svg

<?xml version="1.0" encoding="UTF-8" standalone="no"?>
<!-- Created with Inkscape (http://www.inkscape.org/) --><svg height="256" id="svg548" inkscape:output_extension="org.inkscape.output.svg.inkscape" inkscape:version="0.46" sodipodi:docname="Flag_of_Zambia.svg" sodipodi:version="0.32" version="1.0" width="256" xmlns="http://www.w3.org/2000/svg" xmlns:cc="http://creativecommons.org/ns#" xmlns:dc="http://purl.org/dc/elements/1.1/" xmlns:inkscape="http://www.inkscape.org/namespaces/inkscape" xmlns:rdf="http://www.w3.org/1999/02/22-rdf-syntax-ns#" xmlns:sodipodi="http://sodipodi.sourceforge.net/DTD/sodipodi-0.dtd" xmlns:svg="http://www.w3.org/2000/svg">
  <metadata>
    <rdf:RDF xmlns:cc="http://web.resource.org/cc/" xmlns:dc="http://purl.org/dc/elements/1.1/" xmlns:rdf="http://www.w3.org/1999/02/22-rdf-syntax-ns#">
      <cc:Work rdf:about="">
        <dc:title></dc:title>
        <dc:description></dc:description>
        <dc:subject>
          <rdf:Bag>
            <rdf:li>unsorted</rdf:li>
          </rdf:Bag>
        </dc:subject>
        <dc:publisher>
          <cc:Agent rdf:about="http://www.openclipart.org/">
            <dc:title>Open Clip Art Library, Source: Wikimedia Commons, Source: Wikimedia Commons, Source: Wikimedia Commons, Source: Wikimedia Commons</dc:title>
          </cc:Agent>
        </dc:publisher>
        <dc:creator>
          <cc:Agent>
            <dc:title></dc:title>
          </cc:Agent>
        </dc:creator>
        <dc:rights>
          <cc:Agent>
            <dc:title></dc:title>
          </cc:Agent>
        </dc:rights>
        <dc:date></dc:date>
        <dc:format>image/svg+xml</dc:format>
        <dc:type rdf:resource="http://purl.org/dc/dcmitype/StillImage"/>
        <cc:license rdf:resource="http://en.wikipedia.org/wiki/Public_domain"/>
        <dc:language>en</dc:language>
      </cc:Work>
    </rdf:RDF>
  </metadata>
  <sodipodi:namedview bordercolor="#666666" borderopacity="1.0" gridtolerance="10.0" guidetolerance="10.0" id="base" inkscape:current-layer="svg548" inkscape:cx="1050" inkscape:cy="700" inkscape:pageopacity="0.0" inkscape:pageshadow="2" inkscape:window-height="713" inkscape:window-width="901" inkscape:window-x="280" inkscape:window-y="91" inkscape:zoom="0.26619048" objecttolerance="10.0" pagecolor="#ffffff" showgrid="false"/>
  <defs id="defs550">
    <inkscape:perspective id="perspective4095" inkscape:persp3d-origin="1050 : 466.66667 : 1" inkscape:vp_x="0 : 700 : 1" inkscape:vp_y="0 : 1000 : 0" inkscape:vp_z="2100 : 700 : 1" sodipodi:type="inkscape:persp3d"/>
  </defs>
  <rect height="170.66667" id="rect626" style="fill:#198a00" width="256" x="0" y="42.333321"/>
  <rect height="109.71429" id="rect616" style="fill:#ef7d00" width="30.476191" x="225.5238" y="103.28571"/>
  <rect height="109.71429" id="rect617" style="fill:#000000" width="30.476191" x="195.04762" y="103.28571"/>
  <rect height="109.71429" id="rect618" style="fill:#de2010" width="30.476191" x="164.57143" y="103.28571"/>
  <path d="M 233.62127,62.854047 C 233.62127,62.854047 244.10533,58.745147 245.12113,57.897947 C 245.5831,58.406247 240.9183,63.574147 231.86622,65.480447 C 240.08695,63.701247 247.10718,58.109647 248.5389,58.279147 C 248.95459,58.363847 248.862,63.743647 230.01882,68.403247 C 243.04276,65.268547 250.61706,59.507547 250.52471,60.142947 C 250.61706,60.270047 249.23163,64.675547 237.8241,68.106747 C 241.01088,67.428847 249.64731,62.599847 249.55496,63.531847 C 249.832,63.913047 241.19558,74.079447 225.58524,70.775447 C 238.05508,73.740647 246.13719,66.581747 247.29187,66.708847 C 247.52285,66.751147 244.9825,72.978147 229.28004,73.359347 C 236.80829,72.639347 234.63732,73.316947 234.63732,73.316947 C 234.63732,73.316947 230.2035,76.493947 224.84623,74.333747 C 229.04905,75.392847 229.51078,75.435047 229.60315,75.773847 C 229.32609,76.197347 225.86227,76.832947 222.53708,75.180747 C 225.21561,76.197347 227.61732,76.367047 227.66338,76.748247 C 227.61732,76.875247 225.90855,77.764847 224.38449,77.129547 C 222.86041,76.493947 208.8202,68.572647 208.8202,68.572647 L 232.74386,62.557547 L 233.62127,62.854047 z" id="path564" style="font-size:12px;fill:#ef7d00;fill-rule:evenodd;stroke:#000000;stroke-width:0.27568984;stroke-linejoin:round"/>
  <path d="M 205.49639,84.281347 C 203.39268,84.281347 203.33463,85.998347 203.33463,85.998347 C 203.33463,85.998347 203.161,86.122347 203.27682,86.954547 C 203.62412,86.387847 203.79799,86.210847 203.79799,86.210847 C 204.02966,86.246347 204.99458,86.511847 206.51934,85.414347 C 205.12953,86.741847 205.95973,87.237647 205.95973,87.237647 C 205.95973,87.237647 205.63159,88.282147 206.693,88.494647 C 206.36505,88.069647 206.55804,87.697847 206.55804,87.697847 C 206.55804,87.697847 208.04411,87.556347 207.94763,85.892347 C 208.00566,87.396847 208.89343,87.768647 208.89343,87.768647 C 208.89343,87.768647 208.89343,88.600647 209.85835,88.671647 C 209.33744,88.246647 209.45303,87.591647 209.45303,87.591647 C 209.45303,87.591647 210.70766,86.759647 209.64603,85.343347 C 210.28301,85.006847 210.80416,84.068847 210.80416,84.068847 C 210.80416,84.068847 209.93574,83.732347 209.53042,83.449347 C 209.3372,83.077347 209.51108,81.041647 209.51108,81.041647 L 208.98992,78.403847 L 207.50362,82.511047 C 207.56141,81.926847 207.60012,84.281347 205.49639,84.281347 z" id="path560" style="font-size:12px;fill:#ef7d00;fill-rule:evenodd;stroke:#000000;stroke-width:0.27568984;stroke-linejoin:round"/>
  <path d="M 215.88648,78.357747 C 215.93254,78.400247 217.45684,79.967747 218.93464,79.882847 C 219.48871,79.459347 217.77994,78.527447 217.77994,78.315547 C 218.38031,78.823947 220.92044,80.814747 222.53708,80.094647 C 223.18351,79.247447 221.3824,79.374647 219.39636,77.087047 C 220.7818,77.934247 224.24586,79.798147 225.86227,79.078047 C 226.55521,78.400247 222.25981,76.282047 220.82809,74.630147 L 217.13352,72.893447 L 212.09933,76.663547 L 215.88648,78.357747 z" id="path563" style="font-size:12px;fill:#ef7d00;fill-rule:evenodd;stroke:#000000;stroke-width:0.27568984;stroke-linejoin:round"/>
  <path d="M 210.20585,65.480347 C 210.20585,65.480347 211.91463,64.548447 218.74993,65.014447 C 219.48894,65.099147 223.4145,63.785947 224.66153,63.404747 C 226.64733,63.065847 232.97462,61.795047 234.6836,60.608947 C 235.88435,60.481847 234.36004,62.642247 232.83622,63.150547 C 231.21955,63.828347 225.35425,65.692147 223.27585,65.438047 C 225.76992,65.480447 224.38449,67.344247 220.22772,66.454647 C 222.21375,67.471347 221.47474,67.640747 221.47474,67.640747 C 221.47474,67.640747 217.96486,67.810147 217.04116,67.090047 C 219.3966,67.894947 218.4266,68.191447 218.4266,68.191447 C 218.4266,68.191447 216.02512,68.403247 214.91649,67.937247 C 216.62526,68.403247 215.74784,68.699747 215.74784,68.699747 C 215.74784,68.699747 214.3624,68.911547 213.20772,68.530347 C 212.05326,68.149047 210.29821,65.480347 210.20585,65.480347 z" id="path562" style="font-size:12px;fill:#ef7d00;fill-rule:evenodd;stroke:#000000;stroke-width:0.27568984;stroke-linecap:round;stroke-linejoin:round"/>
  <path d="M 212.94658,79.235847 L 213.19759,83.378347 C 213.19759,83.378347 213.06241,83.590847 212.94658,83.714847 C 212.83073,83.838647 209.74252,83.272147 210.16717,85.431847 C 210.16717,86.317147 210.18652,86.547147 210.84286,87.042847 C 210.66898,86.458647 210.72702,86.051647 210.72702,86.051647 C 210.72702,86.051647 211.59545,86.529647 212.44477,85.219647 C 211.86581,86.511847 212.27088,86.972147 212.40608,87.007647 C 212.54126,87.237847 212.17463,88.282147 213.33254,88.264347 C 212.88877,87.874847 213.10109,87.308347 213.10109,87.308347 C 213.10109,87.308347 214.31704,87.131547 213.89238,85.113347 C 214.33638,84.706147 214.51002,85.095647 214.51002,85.095647 C 214.51002,85.095647 214.64498,86.299347 215.70662,86.051647 C 216.18932,86.299347 215.62948,86.954347 215.62948,86.954347 C 215.62948,86.954347 216.40141,86.972147 216.63309,86.370147 C 216.86477,85.768347 217.1349,84.688347 215.86092,84.245847 C 215.70662,83.821047 216.36296,83.785647 216.36296,83.785647 C 216.36296,83.785647 217.17358,84.033347 217.40503,84.405147 C 217.63671,84.776847 217.55955,83.431547 216.55593,83.289847 C 215.32065,83.254347 215.24351,83.024347 215.24351,82.971347 C 215.24351,82.918147 215.03117,79.961847 214.93469,79.112047 L 212.94658,79.235847 z" id="path561" style="font-size:12px;fill:#ef7d00;fill-rule:evenodd;stroke:#000000;stroke-width:0.27568984;stroke-linejoin:round"/>
  <path d="M 217.24267,82.766047 C 217.25786,82.576147 215.1355,79.955047 215.67392,79.616247 C 216.2121,79.717847 217.09481,80.910047 217.80987,80.523047 C 217.59316,80.058347 216.95434,80.320047 216.22892,79.130447 C 215.50374,77.785547 215.3978,75.766747 212.85767,73.564447 C 214.50219,75.894947 218.2327,77.260947 218.39069,76.581447 C 218.54866,75.901847 215.10579,73.332347 215.2822,72.713047 C 215.96685,73.984847 219.42377,76.818647 221.9708,76.583947 C 222.14537,76.038347 219.88504,74.937247 219.30333,73.909047 C 217.67631,72.906547 213.32217,69.464147 213.2349,68.665747 C 211.65049,66.546247 210.66139,65.905047 210.2008,65.660947 C 210.02278,65.468647 209.97811,65.284747 209.94333,65.167847 C 208.95976,63.041147 210.26252,62.350547 211.02502,62.248447 C 211.65256,62.184447 211.83472,62.270647 212.28633,62.070047 C 211.75158,61.878147 211.21708,61.698747 210.68256,61.506847 C 211.37966,61.975847 213.16029,61.562947 212.77431,62.913847 C 213.555,62.641447 215.2161,60.828747 210.89167,60.419747 C 209.48436,58.938947 203.69826,58.087847 202.24997,64.550847 C 202.36557,64.641447 202.42614,64.715847 202.79415,64.967947 C 200.96701,64.155647 196.03807,63.529247 194.26182,63.266047 C 189.46322,61.996147 184.47968,58.935947 184.00063,59.312347 C 183.3599,59.573147 186.89994,62.593947 186.71594,62.660747 C 183.64644,61.019247 180.84234,59.856247 178.23315,58.797947 C 176.39758,58.168647 174.55907,56.703347 174.35635,56.982147 C 173.6808,58.265647 177.2992,61.492147 177.97226,61.871647 C 178.64553,62.234747 183.93916,64.486947 183.8611,64.515047 C 175.8879,61.195747 174.5511,60.593947 174.151,60.211247 C 173.44825,60.066047 171.73638,57.946147 171.25931,58.082447 C 170.99813,58.317747 171.52196,61.667547 175.32663,63.171147 C 175.94678,63.585747 183.4821,66.065047 183.40831,66.259447 C 183.38988,66.308047 174.77767,62.999247 174.44314,62.880947 C 172.78269,62.283747 170.74526,60.190447 170.36436,60.425847 C 170.00081,60.639447 171.30359,62.905147 172.98144,63.615847 C 173.8609,63.971747 177.23431,65.504247 180.2736,66.479647 C 180.46758,66.543947 174.8105,64.512047 172.09065,63.469547 C 170.85744,62.841747 170.27669,62.059247 170.08885,62.227647 C 169.81099,62.395947 170.53775,65.743047 179.27806,67.631647 C 179.50833,67.721547 182.35466,67.013147 182.21399,67.107147 C 182.17879,67.130647 179.38754,67.687947 179.11576,67.668947 C 178.87389,67.635047 177.34473,67.834947 177.31707,67.907647 C 177.22468,68.134047 177.8711,69.332447 182.38393,69.082547 C 182.96086,69.050747 186.0917,68.036847 185.82867,68.254947 C 185.69715,68.364047 181.56532,69.595447 181.25065,69.619747 C 180.97733,69.655147 179.52583,69.794447 179.47216,69.936047 C 179.40663,70.129147 180.54655,70.982047 182.97005,71.118747 C 185.11582,71.223247 189.19316,69.916147 189.11137,70.000947 C 189.02956,70.085647 185.1807,71.295347 185.07998,71.369047 C 184.94071,71.441247 183.53132,71.511347 183.48186,71.610647 C 183.36701,71.857647 185.51491,73.699847 191.86725,71.733847 C 191.2291,72.524447 188.15002,73.065147 188.15444,73.207547 C 188.14017,73.310847 188.8328,73.924647 189.9093,74.144347 C 190.44751,74.254147 191.18443,74.231747 191.85757,74.134147 C 193.06662,73.912147 194.34082,73.473447 195.95976,72.101147 C 196.15322,72.531847 191.91561,74.498747 192.11458,74.686347 C 193.03345,75.467847 196.08575,74.585547 196.28564,74.483147 C 196.48575,74.380447 202.16337,71.444047 202.14379,71.104147 C 202.232,71.539747 194.82397,75.231647 194.90388,75.383147 C 195.37943,76.079147 197.91011,75.346547 198.03101,75.282547 C 198.15169,75.218747 201.26063,73.678347 201.34583,73.632947 C 201.43082,73.587547 197.69203,75.639947 198.02503,75.952347 C 197.86406,77.285247 203.86409,75.032547 204.33434,74.751947 C 204.56947,74.611747 201.452,76.009147 201.44371,76.673047 C 202.44757,78.229747 205.66198,77.735947 206.15779,77.393547 C 206.40581,77.222247 205.86601,78.550047 206.03988,78.429347 C 206.10046,78.404447 206.73905,77.711847 206.98455,77.210647 C 206.90623,77.645547 206.55389,78.330747 206.34824,79.116947 C 206.14237,79.903147 206.0834,80.790247 205.80085,81.732747 C 205.73612,82.146747 207.78158,80.923347 207.4845,77.998747 C 207.65953,79.519947 206.83854,82.364447 207.05339,82.512347 C 207.48312,82.808047 208.6712,81.095647 208.79117,79.937747 C 209.14399,80.522647 209.88438,81.743447 210.52137,82.024447 C 210.45205,81.139647 210.53357,81.180147 210.24686,80.310547 C 210.4122,79.156047 210.43524,77.558147 210.4753,75.753847 C 212.20619,78.795047 212.8966,80.079247 212.41299,82.408247 C 212.92768,82.605047 213.74982,80.782647 213.6835,79.844547 C 214.34445,82.451047 217.1973,82.841847 217.24267,82.766047 z" id="path553" style="font-size:12px;fill:#ef7d00;fill-rule:evenodd;stroke:#000000;stroke-width:0.22055187pt;stroke-linecap:round;stroke-linejoin:round"/>
  <path d="M 188.41294,63.457847 C 188.41294,63.457847 187.23482,64.274247 185.76874,64.226247 C 186.13526,65.570947 189.17216,64.538447 189.17216,64.538447 C 189.17216,64.538447 187.70608,66.027247 186.65888,66.267347 C 187.2872,66.747547 189.93141,66.579547 190.37656,66.339347 C 190.8215,66.099247 191.607,65.162747 191.607,65.162747 C 191.607,65.162747 188.88419,68.044247 188.4915,68.020247 C 188.43913,68.356447 191.34518,68.236347 191.94739,67.732147 C 192.54938,67.227847 194.06792,66.483447 194.06792,66.483447 C 194.06792,66.483447 190.08847,69.028747 189.90515,69.028747 C 191.39746,69.388947 194.38204,68.596547 196.29323,67.515947 C 193.4657,69.244847 193.20409,69.557047 191.76407,70.133347 C 193.04703,70.397447 193.70129,71.189947 198.04737,69.460947 C 200.53452,68.380447 201.94805,66.411447 201.94805,66.411447 C 200.40348,68.308447 197.96862,69.917347 195.27235,71.502147 C 195.11506,71.790247 198.15191,72.966747 202.02658,69.268947" id="path555" style="font-size:12px;fill:#ef7d00;fill-rule:evenodd;stroke:#000000;stroke-width:0.22055187pt;stroke-linecap:round;stroke-linejoin:round"/>
  <path d="M 209.4618,71.478047 C 209.4618,71.478047 209.72362,72.606647 210.77076,73.471147 C 211.81814,74.335447 211.89667,75.175947 211.89667,75.175947" id="path556" style="font-size:12px;fill:#ef7d00;fill-rule:evenodd;stroke:#000000;stroke-width:0.22055187pt;stroke-linecap:round"/>
  <path d="M 208.93834,64.130247 C 208.93834,64.130247 209.30473,65.138747 210.37812,65.787047 C 211.47777,66.435447 213.12735,68.476447 213.25815,68.836647 C 213.38481,69.272647 214.01719,72.414547 213.96493,72.750647" id="path557" style="font-size:12px;fill:#ef7d00;fill-rule:evenodd;stroke:#000000;stroke-width:0.22055187pt;stroke-linecap:round"/>
  <path d="M 202.26241,65.691047 C 202.34092,66.075247 200.7176,68.020247 202.94292,70.301447 C 200.92694,72.558447 200.92717,72.846747 200.92717,72.846747 C 200.92717,72.846747 202.05283,73.422947 204.0688,71.838147 C 207.39354,75.584247 206.2856,77.298547 206.2856,77.298547" id="path558" style="font-size:12px;fill:#ef7d00;fill-rule:evenodd;stroke:#000000;stroke-width:0.22055187pt;stroke-linecap:round"/>
  <path d="M 206.02077,74.653947 C 206.02077,74.653947 205.71448,74.251647 206.2605,72.748947 C 206.75217,73.292247 207.29889,73.408147 207.53863,73.628047 C 207.77812,73.847947 210.28854,74.181247 210.44813,75.720047" id="path559" style="font-size:12px;fill:#ef7d00;fill-rule:evenodd;stroke:#000000;stroke-width:0.22055187pt;stroke-linecap:round;stroke-linejoin:round"/>
  <path d="M 208.97196,60.549747 C 208.97196,60.436747 208.46647,59.441847 206.58061,60.685447 C 207.59136,60.741947 208.58968,61.273347 208.97196,60.549747 z" id="path552" style="font-size:12px;fill:#ef7d00;fill-rule:evenodd;stroke:#000000;stroke-width:0.22055187pt"/>
  <path d="M 226.97067,65.099147 C 227.06302,65.141447 232.60522,66.242847 234.45264,65.692147 C 232.09721,68.572647 227.38634,66.624147 227.38634,66.624147 C 229.69548,67.259547 229.78806,67.217147 230.52683,67.810147 C 230.75781,68.360847 226.27795,68.106747 224.79993,67.344247 C 228.91042,68.530347 229.00278,68.445647 229.14139,68.911547 C 229.32634,69.546947 222.39845,68.742147 221.79807,67.894947 C 223.64548,69.208047 224.66153,69.462247 225.67758,70.055247 C 224.43056,70.563647 222.1214,71.071847 217.87229,68.318547 C 223.46055,72.978147 228.49475,72.681547 229.28004,73.528747 C 227.34029,76.155147 219.81204,71.961547 216.34821,69.843447 C 212.88439,67.725447 223.92252,74.969147 224.9388,74.841947 C 224.43056,75.562047 220.78203,74.926647 220.55103,74.587847" id="path565" style="font-size:12px;fill:#ef7d00;fill-rule:evenodd;stroke:#000000;stroke-width:0.22055187pt;stroke-linejoin:round"/>
  <path d="M 228.4024,69.970547 C 227.75596,70.055247 225.81621,70.055247 225.53917,70.012947" id="path566" style="font-size:12px;fill:#ef7d00;fill-rule:evenodd;stroke:#000000;stroke-width:0.22055187pt;stroke-linecap:round"/>
  <path d="M 186.78977,62.689447 C 186.78977,62.689447 191.00481,64.730547 192.78496,64.586447 C 192.31378,64.994647 191.60678,65.162747 191.60678,65.162747 C 192.05194,65.330847 193.28239,65.931147 195.1413,65.546947 C 194.69616,65.955147 194.12019,66.411447 194.12019,66.411447 C 194.12019,66.411447 195.71727,66.963647 197.52368,66.099247 C 196.97397,66.723547 196.65961,67.179847 196.65961,67.179847 L 197.91633,67.251847" id="path554" style="font-size:12px;fill:#ef7d00;fill-rule:evenodd;stroke:#000000;stroke-width:0.22055187pt;stroke-linecap:round;stroke-linejoin:round"/>
</svg>

<svg xmlns="http://www.w3.org/2000/svg" viewBox="0 0 256 256"><path fill="#198a00" d="m0 42.33h256v170.67h-256z"/><path fill="#ef7d00" d="m225.52 103.29h30.476v109.71h-30.476z"/><path d="m195.05 103.29h30.476v109.71h-30.476z"/><path fill="#de2010" d="m164.57 103.29h30.477v109.71h-30.477z"/><g fill="#ef7d00" fill-rule="evenodd" stroke="#000" stroke-width=".276"><g stroke-linejoin="round"><path d="m233.62 62.854c0 0 10.484-4.109 11.5-4.956.462.508-4.203 5.676-13.255 7.582 8.221-1.779 15.241-7.371 16.673-7.201.416.085.323 5.465-18.52 10.124 13.02-3.135 20.598-8.896 20.506-8.26.092.127-1.293 4.533-12.701 7.964 3.187-.678 11.823-5.507 11.731-4.575.277.381-8.359 10.548-23.97 7.244 12.47 2.965 20.552-4.194 21.707-4.067.231.042-2.309 6.269-18.01 6.65 7.528-.72 5.357-.042 5.357-.042 0 0-4.434 3.177-9.791 1.017 4.203 1.059 4.665 1.101 4.757 1.44-.277.423-3.741 1.059-7.07-.593 2.679 1.017 5.08 1.186 5.126 1.568-.046.127-1.755 1.017-3.279.381-1.524-.636-15.564-8.557-15.564-8.557l23.924-6.02.877.297z"/><path d="m205.5 84.28c-2.104 0-2.162 1.717-2.162 1.717 0 0-.174.124-.058.956.347-.567.521-.744.521-.744.232.035 1.197.301 2.721-.796-1.39 1.328-.56 1.823-.56 1.823 0 0-.328 1.044.733 1.257-.328-.425-.135-.797-.135-.797 0 0 1.486-.141 1.39-1.805.058 1.504.946 1.876.946 1.876 0 0 0 .832.965.903-.521-.425-.405-1.08-.405-1.08 0 0 1.255-.832.193-2.248.637-.337 1.158-1.274 1.158-1.274 0 0-.868-.337-1.274-.62-.193-.372-.019-2.408-.019-2.408l-.521-2.638-1.486 4.107c.058-.584.096 1.77-2.01 1.77z"/><path d="m215.89 78.36c.046.042 1.57 1.61 3.048 1.525.554-.424-1.155-1.355-1.155-1.567.6.508 3.141 2.499 4.757 1.779.646-.847-1.155-.72-3.141-3.01 1.385.847 4.85 2.711 6.466 1.991.693-.678-3.602-2.796-5.03-4.448l-3.695-1.737-5.03 3.77 3.787 1.694z"/><path d="m210.21 65.48c0 0 1.709-.932 8.544-.466.739.085 4.665-1.229 5.912-1.61 1.986-.339 8.313-1.61 10.02-2.796 1.201-.127-.324 2.033-1.847 2.542-1.617.678-7.482 2.542-9.56 2.287 2.494.042 1.109 1.906-3.048 1.017 1.986 1.017 1.247 1.186 1.247 1.186 0 0-3.51.169-4.434-.551 2.355.805 1.385 1.101 1.385 1.101 0 0-2.401.212-3.51-.254 1.709.466.831.763.831.763 0 0-1.385.212-2.54-.169-1.154-.381-2.91-3.05-3-3.05z" stroke-linecap="round"/><path d="m212.95 79.24l.251 4.142c0 0-.135.212-.251.337-.116.124-3.204-.443-2.779 1.717 0 .885.019 1.115.676 1.611-.174-.584-.116-.991-.116-.991 0 0 .868.478 1.718-.832-.579 1.292-.174 1.753-.039 1.788.135.23-.231 1.274.926 1.257-.444-.389-.231-.956-.231-.956 0 0 1.216-.177.791-2.195.444-.407.618-.018.618-.018 0 0 .135 1.204 1.197.956.483.248-.077.903-.077.903 0 0 .772.018 1-.584.232-.602.502-1.682-.772-2.124-.154-.425.502-.46.502-.46 0 0 .811.248 1.042.62.232.372.155-.974-.849-1.115-1.235-.035-1.312-.265-1.312-.319 0-.053-.212-3.01-.309-3.859l-1.988.124z"/><g stroke-linecap="round"><path d="m217.24 82.77c.015-.19-2.107-2.811-1.569-3.15.538.102 1.421 1.294 2.136.907-.217-.465-.856-.203-1.581-1.393-.725-1.345-.831-3.364-3.371-5.566 1.645 2.331 5.375 3.697 5.533 3.02.158-.68-3.285-3.249-3.108-3.868.685 1.272 4.142 4.106 6.689 3.871.175-.546-2.086-1.647-2.667-2.675-1.627-1-5.981-4.445-6.068-5.243-1.584-2.12-2.574-2.761-3.034-3-.178-.192-.223-.376-.257-.493-.984-2.127.319-2.817 1.082-2.919.628-.064.81.022 1.261-.178-.535-.192-1.069-.371-1.604-.563.697.469 2.478.056 2.092 1.407.781-.272 2.442-2.085-1.883-2.494-1.407-1.481-7.193-2.332-8.642 4.131.116.091.176.165.544.417-1.827-.812-6.756-1.439-8.532-1.702-4.799-1.27-9.782-4.33-10.261-3.954-.641.261 2.899 3.282 2.715 3.348-3.069-1.642-5.874-2.804-8.483-3.863-1.836-.629-3.674-2.095-3.877-1.816-.676 1.284 2.943 4.51 3.616 4.89.673.363 5.967 2.615 5.889 2.643-7.973-3.319-9.31-3.921-9.71-4.304-.703-.145-2.415-2.265-2.892-2.129-.261.235.263 3.585 4.067 5.089.62.415 8.155 2.894 8.08 3.088-.018.049-8.631-3.26-8.965-3.378-1.66-.597-3.698-2.691-4.079-2.455-.364.214.939 2.479 2.617 3.19.879.356 4.253 1.888 7.292 2.864.194.064-5.463-1.968-8.183-3.01-1.233-.628-1.814-1.41-2-1.242-.278.168.449 3.515 9.189 5.404.23.09 3.077-.618 2.936-.525-.035.023-2.826.581-3.098.562-.242-.034-1.771.166-1.799.239-.092.226.554 1.425 5.067 1.175.577-.032 3.708-1.046 3.445-.828-.132.109-4.263 1.34-4.578 1.365-.273.035-1.725.175-1.778.316-.066.193 1.074 1.046 3.498 1.183 2.146.105 6.223-1.203 6.141-1.118-.082.085-3.931 1.294-4.03 1.368-.139.072-1.549.142-1.598.242-.115.247 2.033 2.089 8.385.123-.638.791-3.717 1.331-3.713 1.474-.014.103.678.717 1.755.937.538.11 1.275.087 1.948-.001 1.209-.222 2.483-.661 4.102-2.033.193.431-4.044 2.398-3.845 2.585.919.782 3.971-.101 4.171-.203.2-.103 5.878-3.039 5.858-3.379.088.436-7.32 4.127-7.24 4.279.476.696 3.01-.037 3.127-.101.121-.064 3.23-1.604 3.315-1.65.085-.045-3.654 2.01-3.321 2.319-.161 1.333 5.839-.92 6.309-1.2.235-.14-2.882 1.257-2.891 1.921 1 1.557 4.218 1.063 4.714.721.248-.171-.292 1.157-.118 1.036.061-.025.699-.718.945-1.219-.078.435-.431 1.12-.636 1.906-.206.786-.265 1.673-.547 2.616-.065.414 1.981-.809 1.684-3.734.175 1.521-.646 4.366-.431 4.514.43.296 1.618-1.417 1.738-2.575.353.585 1.093 1.806 1.73 2.087-.069-.885.012-.844-.275-1.714.165-1.154.188-2.752.228-4.557 1.731 3.041 2.421 4.325 1.938 6.654.515.197 1.337-1.626 1.271-2.564.661 2.606 3.514 2.997 3.559 2.921z"/><path d="m188.41 63.46c0 0-1.178.816-2.644.768.367 1.345 3.403.312 3.403.312 0 0-1.466 1.489-2.513 1.729.628.48 3.273.312 3.718.072.445-.24 1.23-1.177 1.23-1.177 0 0-2.723 2.882-3.115 2.858-.052.336 2.854.216 3.456-.288.602-.504 2.121-1.249 2.121-1.249 0 0-3.979 2.545-4.163 2.545 1.492.36 4.477-.432 6.388-1.513-2.828 1.729-3.089 2.041-4.529 2.617 1.283.264 1.937 1.057 6.283-.672 2.487-1.081 3.901-3.05 3.901-3.05-1.545 1.897-3.979 3.506-6.676 5.091-.157.288 2.88 1.465 6.754-2.233"/></g></g><g stroke-linecap="round"><path d="m209.46 71.48c0 0 .262 1.129 1.309 1.993 1.047.864 1.126 1.705 1.126 1.705"/><path d="m208.94 64.13c0 0 .366 1.01 1.44 1.657 1.1.648 2.749 2.689 2.88 3.05.127.436.759 3.578.707 3.914"/><path d="m202.26 65.69c.079.384-1.545 2.329.681 4.61-2.02 2.257-2.02 2.545-2.02 2.545 0 0 1.126.576 3.142-1.01 3.325 3.746 2.217 5.46 2.217 5.46"/><path d="m206.02 74.65c0 0-.306-.402.24-1.905.492.543 1.038.659 1.278.879.239.22 2.75.553 2.909 2.092" stroke-linejoin="round"/></g><path d="m208.97 60.55c0-.113-.505-1.108-2.391.136 1.01.056 2.01.588 2.391-.136z"/><path d="m226.97 65.1c.092.042 5.635 1.144 7.482.593-2.355 2.88-7.07.932-7.07.932 2.309.635 2.402.593 3.14 1.186.231.551-4.249.297-5.727-.466 4.11 1.186 4.203 1.101 4.341 1.567.185.635-6.743-.169-7.343-1.017 1.847 1.313 2.863 1.567 3.88 2.16-1.247.508-3.556 1.017-7.805-1.737 5.588 4.66 10.622 4.363 11.408 5.21-1.94 2.626-9.468-1.567-12.932-3.685-3.464-2.118 7.574 5.126 8.591 4.999-.508.72-4.157.085-4.388-.254" stroke-linejoin="round"/><g stroke-linecap="round"><path d="m228.4 69.971c-.646.085-2.586.085-2.863.042"/><path d="m186.79 62.689c0 0 4.215 2.041 5.995 1.897-.471.408-1.178.576-1.178.576.445.168 1.676.768 3.535.384-.445.408-1.021.864-1.021.864 0 0 1.597.552 3.403-.312-.55.624-.864 1.081-.864 1.081l1.257.072" stroke-linejoin="round"/></g></g></svg>
